/*
  Phase 10: Validation & Regression
  Measurement Harness
*/

(
~MEASURE = (
    // Stimuli Generation
    playSineSweep: { |self, bus, start=20, end=20000, dur=5|
        { Sweep.ar(Impulse.ar(1/dur), end-start) + start }.play(s, bus);
    },
    
    // Capture & Metric Calculation
    analyzeEntity: { |self, entityId, registry|
        var traits = registry.getTraits(entityId);
        "Analysis for %: %".format(entityId, traits).postln;
        // In full implementation, this would perform FFT and store results in a JSON report
    },
    
    // Reference Vectors (Make NoiseMATHS approx)
    refMATHS: (
        spectral_profile: (centroid: 0.2, flatness: 0.1),
        temporal_topology: (attack: 0.1, decay: 0.5, slew: 0.8),
        modulation_graph: (type: \function_generator)
    )
);

"--- BRAHMA: Measurement Harness Ready ---".postln;
)
